X: 301
P: Longways for as many as will
M: C|
L: 1/8
K: Dm
[|\
a4 g2e2 | f2(ed) ^c4 | d3f (ef)g2 | f4 e4 |\
a3g f2e2 | f2(ed) ^c3e | d3f (ef)g2 | f4 e4 |]
[|\
e2ef e2d2 | c2=B2 c2A2 | c3c (dc)(BA) | G4 F4 |\

